assets/Speak-no-evil monkey/Flat/speak-no-evil_monkey_flat.svg

<svg width="32" height="32" viewBox="0 0 32 32" fill="none" xmlns="http://www.w3.org/2000/svg">
<path d="M6.5 20C9.53757 20 12 17.5376 12 14.5C12 11.4624 9.53757 9 6.5 9C3.46243 9 1 11.4624 1 14.5C1 17.5376 3.46243 20 6.5 20Z" fill="#E39D89"/>
<path d="M25.5 20C28.5376 20 31 17.5376 31 14.5C31 11.4624 28.5376 9 25.5 9C22.4624 9 20 11.4624 20 14.5C20 17.5376 22.4624 20 25.5 20Z" fill="#E39D89"/>
<path d="M4 14C4 7.92487 8.92487 3 15 3H17C23.0751 3 28 7.92487 28 14V16C28 22.0751 23.0751 27 17 27H15C8.92487 27 4 22.0751 4 16V14Z" fill="#7D4533"/>
<path d="M11.4844 6.46875C9.00772 6.46875 7 8.47647 7 10.9531V11.0938C7 12.6893 7.83324 14.0902 9.08832 14.885C9.0302 15.2481 9 15.6205 9 16C9 19.866 12.134 23 16 23C19.866 23 23 19.866 23 16C23 15.6205 22.9698 15.2481 22.9117 14.885C24.1668 14.0902 25 12.6893 25 11.0938V10.9531C25 8.47647 22.9923 6.46875 20.5156 6.46875H11.4844Z" fill="#E39D89"/>
<path d="M13.5 15.75C13.5 15.0596 14.0596 14.5 14.75 14.5H17.25C17.9404 14.5 18.5 15.0596 18.5 15.75C18.5 16.4404 17.9404 17 17.25 17H14.75C14.0596 17 13.5 16.4404 13.5 15.75Z" fill="#FF8687"/>
<path d="M12.7422 11C12.3323 11 12 11.3323 12 11.7422V13.2578C12 13.6677 12.3323 14 12.7422 14H12.7578C13.1677 14 13.5 13.6677 13.5 13.2578V11.7422C13.5 11.3323 13.1677 11 12.7578 11H12.7422Z" fill="#1C1C1C"/>
<path d="M19.2422 11C18.8323 11 18.5 11.3323 18.5 11.7422V13.2578C18.5 13.6677 18.8323 14 19.2422 14H19.2578C19.6677 14 20 13.6677 20 13.2578V11.7422C20 11.3323 19.6677 11 19.2578 11H19.2422Z" fill="#1C1C1C"/>
<path d="M13.1749 16.8688L15.9125 15.5C16.4648 15.2239 17.1364 15.4477 17.4125 16C17.6887 16.5523 17.4648 17.2239 16.9125 17.5L17.6855 17.1135C18.3779 16.7673 19.2201 17.0126 19.6184 17.6764C20.0516 18.3984 19.7967 19.3359 19.0574 19.7391L19.0401 19.7486C19.4706 19.909 19.8308 20.2547 19.9898 20.7317C20.2339 21.4641 19.9141 22.2658 19.2329 22.6291L12.9125 26L13.4125 22L14.6983 21.3571L13.9125 19L13.4126 18V19H9.91255V17.75C9.91255 16.7835 10.6961 16 11.6626 16C12.3078 16 12.8714 16.3492 13.1749 16.8688Z" fill="#FBB8AB"/>
<path d="M12.4126 27C15.4126 25.2857 16 19 13 17L4.1423 21.7572C2.7248 22.5228 1.84132 24.0041 1.84132 25.6152V25.6981C1.84132 28.074 3.76735 30 6.14322 30C6.6056 30 7.06187 29.9188 7.47572 29.7126C8.44377 29.2302 10.2739 28.2221 12.4126 27Z" fill="#8C5543"/>
<path d="M18.7377 16.8688L16 15.5C15.4477 15.2239 14.7761 15.4477 14.5 16C14.2239 16.5523 14.4477 17.2239 15 17.5L14.2271 17.1135C13.5347 16.7673 12.6925 17.0126 12.2942 17.6764C11.8609 18.3984 12.1159 19.3359 12.8551 19.7391L12.8724 19.7486C12.4419 19.909 12.0818 20.2547 11.9228 20.7317C11.6786 21.4641 11.9984 22.2658 12.6797 22.6291L19 26L18.5 22L17.2143 21.3571L18 19L18.5 18V19H22V17.75C22 16.7835 21.2165 16 20.25 16C19.6048 16 19.0411 16.3492 18.7377 16.8688Z" fill="#FBB8AB"/>
<path d="M19.5 27C16.5 25.2857 15.5 18.75 18.5 16.75L27.7703 21.7572C29.1878 22.5228 30.0712 24.0041 30.0712 25.6152V25.6981C30.0712 28.074 28.1452 30 25.7693 30C25.307 30 24.8507 29.9188 24.4368 29.7126C23.4688 29.2302 21.6386 28.2221 19.5 27Z" fill="#8C5543"/>
</svg>

<svg xmlns="http://www.w3.org/2000/svg" width="32" height="32" fill="none"><path fill="#E39D89" d="M6.5 20a5.5 5.5 0 1 0 0-11 5.5 5.5 0 0 0 0 11ZM25.5 20a5.5 5.5 0 1 0 0-11 5.5 5.5 0 0 0 0 11Z"/><path fill="#7D4533" d="M4 14C4 7.925 8.925 3 15 3h2c6.075 0 11 4.925 11 11v2c0 6.075-4.925 11-11 11h-2C8.925 27 4 22.075 4 16v-2Z"/><path fill="#E39D89" d="M11.484 6.469A4.484 4.484 0 0 0 7 10.953v.14a4.48 4.48 0 0 0 2.088 3.792 7 7 0 1 0 13.823 0A4.48 4.48 0 0 0 25 11.094v-.14a4.484 4.484 0 0 0-4.484-4.485h-9.032Z"/><path fill="#FF8687" d="M13.5 15.75c0-.69.56-1.25 1.25-1.25h2.5a1.25 1.25 0 1 1 0 2.5h-2.5c-.69 0-1.25-.56-1.25-1.25Z"/><path fill="#1C1C1C" d="M12.742 11a.742.742 0 0 0-.742.742v1.516c0 .41.332.742.742.742h.016c.41 0 .742-.332.742-.742v-1.516a.742.742 0 0 0-.742-.742h-.016ZM19.242 11a.742.742 0 0 0-.742.742v1.516c0 .41.332.742.742.742h.016c.41 0 .742-.332.742-.742v-1.516a.742.742 0 0 0-.742-.742h-.016Z"/><path fill="#FBB8AB" d="m13.175 16.869 2.737-1.369a1.118 1.118 0 0 1 1 2l.774-.387a1.482 1.482 0 0 1 1.371 2.626l-.017.01a1.583 1.583 0 0 1 .193 2.88L12.913 26l.5-4 1.285-.643L13.912 19l-.5-1v1h-3.5v-1.25a1.75 1.75 0 0 1 3.263-.881Z"/><path fill="#8C5543" d="M12.413 27c3-1.714 3.587-8 .587-10l-8.858 4.757a4.385 4.385 0 0 0-2.3 3.858v.083A4.302 4.302 0 0 0 6.142 30c.463 0 .919-.081 1.333-.287.968-.483 2.798-1.49 4.937-2.713Z"/><path fill="#FBB8AB" d="M18.738 16.869 16 15.5a1.118 1.118 0 0 0-1 2l-.773-.387a1.482 1.482 0 0 0-1.372 2.626l.017.01a1.583 1.583 0 0 0-.193 2.88L19 26l-.5-4-1.286-.643L18 19l.5-1v1H22v-1.25a1.75 1.75 0 0 0-3.262-.881Z"/><path fill="#8C5543" d="M19.5 27c-3-1.714-4-8.25-1-10.25l9.27 5.007a4.385 4.385 0 0 1 2.301 3.858v.083A4.302 4.302 0 0 1 25.77 30c-.462 0-.918-.081-1.332-.287-.968-.483-2.798-1.49-4.937-2.713Z"/></svg>
